icon-themes/breeze_svg/cmd/32/exportdirecttopdf.svg

<svg viewBox="0 0 32 32" xmlns="http://www.w3.org/2000/svg"><path d="m6 4v14l4.5-3 4.5 3v-14zm10 0v1h9v15h-7v7h-11v-8h-1v8 1h13l7-7v-17zm-3 4c-.92027 2.36079-2.80902 3.4428-5 5 .83315-4.49359 1.4-5 5-5z" fill="#4d4d4d"/></svg>

<svg xmlns="http://www.w3.org/2000/svg" viewBox="0 0 32 32">
 <path 
     style="fill:#4d4d4d" 
     d="M 6 4 L 6 18 L 10.5 15 L 15 18 L 15 4 L 6 4 z M 16 4 L 16 5 L 25 5 L 25 20 L 18 20 L 18 27 L 7 27 L 7 19 L 6 19 L 6 27 L 6 28 L 19 28 L 26 21 L 26 4 L 16 4 z M 13 8 C 12.07973 10.36079 10.19098 11.4428 8 13 C 8.83315 8.50641 9.4 8 13 8 z "
     />
</svg>
